X: 25067
T: Maids Of Castlebar, The
R: reel
M: 4/4
K: Dmajor
ABc||dD (3DDD EDB,E|D2FA BAFA|d2cd Bd AF|DEFD EDB,D|
FD (3DDD EDB,E|D2FA BAFA|dfec dBAG|FDEF D2Bc|
dD (3DDD EDB,E|D2FA BAFA|d2 cA BAFA|DEFD EDB,D|
F3 D EDB,E|D2FA BAFA|dfec dBAG|FDEF D4|
|:{^g}a2^ga fd (3ddd|fdad fddf|ge be geef|ge be geeg|
~f3a ~g3e|fdec dcBA|Bcde (3f^ga ec|dBAG FDD2:|

